X:1
T:Blessèd Redeemer
T:Blessèd Redeemer
T:Harry Dixon Loes
T:Avis Marguerite Burgeson Christiansen, 1920
T:Public Domain Courtesy of the Cyber Hymnal™
T:Public Domain Courtesy of the Cyber Hymnal™
C:Harry Dixon Loes
Z:Public Domain
Z:Courtesy of the Cyber Hymnal™
%%score ( 1 2 ) ( 3 4 )
L:1/8
Q:1/4=115
M:9/8
K:Eb
V:1 treble 
V:2 treble 
V:3 bass 
V:4 bass 
V:1
 [GB][GB][GB] | [GB]3 [EG]3 [GB][FA][EG] | [DF]3- [DF]3 [FA][FA][FA] | [FA]3 [DF]3 [Ac][GB][FA] | %4
w: 1.~Up Cal- vary’s|mount- ain, one dread- ful|morn, * Walked Christ my|Sav- ior, wear- y and|
w: 2.~“Fa- ther for-|give them!” thus did He|pray, * E’en while His|life- blood flowed fast a-|
w: 3.~O how I|love Him, Sav- ior and|friend, * How can my|prais- es ev- er find|
 [EG]3- [EG]3 [GB][GB][GB] | [GB]3 [EG]3 [EG][EA][EB] | [Ec]3- [Ec]3 [Ee][Ed][Ec] | %7
w: worn; * Fac- ing for|sin- ners death on the|cross, * That He might|
w: way; * Pray- ing for|sin- ners while in such|woe * No one but|
w: end! * Through years un-|num- bered on heav- en’s|shore, * My tongue shall|
 [EB]3 [EG]3 [DB][DF][DG] | E6 ||"^Refrain" [Ec][Ec][Ec] | [Ec]3 [EA]3 [Ac][Ac][Ac] | %11
w: save them from end- less|loss.|||
w: Je- sus ev- er loved|so.|||
w: praise Him for- ev- er-|more.|||
 [GB]3 [EG]3 [GB][GB][GB] | [FB]3 [DF]2 [DB] [Fd][Fd][Fc] | ([DB]3 [AB]3) [EG][FA][^F=A] | %14
w: |||
w: |||
w: |||
 [GB]3 [EG]3 [EG][FA][GB] | [Ac]3 [ce]3 [ce][Bd][Ac] | [GB]3 [EG]3 [DB][DF][DG] | [B,E]6 |] %18
w: ||||
w: ||||
w: ||||
V:2
 x3 | x9 | x9 | x9 | x9 | x9 | x9 | x9 | E6 || x3 | x9 | x9 | x9 | x9 | x9 | x9 | x9 | x6 |] %18
V:3
 [E,E][E,E][E,E] | [E,E]3 [E,B,]3 [E,B,][E,B,][E,B,] | [B,,B,]3- [B,,B,]3 [B,,D][B,,D][B,,D] | %3
w: ~ ~ ~|~ ~ ~ ~ ~|~ * ~ ~ ~|
 [B,,D]3 [B,,B,]3 [B,,B,][C,B,][D,B,] | [E,B,]3- [E,B,]3 [E,E][E,E][E,E] | %5
w: ~ ~ ~ ~ ~|~ * ~ ~ ~|
 [E,E]3 [E,B,]3 [_D,B,][C,A,][B,,G,] | [A,,A,]3- [A,,A,]3 [A,,C][A,,B,][A,,A,] | %7
w: ~ ~ ~ ~ ~|~ * ~ ~ ~|
 [B,,G,]3 [B,,B,]3 [B,,F,][B,,A,][B,,B,] | [E,G,]6 || A,A,A, | A,3 [A,C]3 [A,E][A,E][A,E] | %11
w: ~ ~ ~ ~ ~|~|Bless- èd Re-|deem- er! Pre- cious Re-|
 [E,E]3 [E,B,]3 [E,B,][E,C][=E,^C] | [F,D]3 [F,B,]2 F, [F,B,][F,G,][F,=A,] | %13
w: deem- er! Seems now I|see Him on Cal- va- ry’s|
 ([B,,B,]3 [B,,D]3) [E,B,][E,B,][E,B,] | [E,E]3 [E,B,]3 [E,B,][E,B,][E,E] | %15
w: tree; * Wound- ed and|bleed- ing, for sin- ners|
 [A,E]3 [A,E]3 [A,E][A,E][A,E] | [E,E]3 [E,B,]3 [B,,A,][B,,A,][B,,B,] | [E,G,]6 |] %18
w: plead- ing, Blind and un-|heed- ing— dy- ing for|me!|
V:4
 x3 | x9 | x9 | x9 | x9 | x9 | x9 | x9 | x6 || A,A,A, | A,3 x6 | x9 | x5 F, x3 | x9 | x9 | x9 | %16
 x9 | x6 |] %18

